X: 22794
T: Lanigan's Ball
R: jig
M: 6/8
K: Eminor
|:EFE G2A|B2A B^cd|DED F2G|ABA AFD|
EFE G2A|B2A B^cd|e2B c2A|1 BGE E2E:|2 BGE E2e||
|:e2f g2e|fag fed|e2f g2e|fBB Bgf|
e2f g2e|fag fed|eBB c2A|1 BGE E2e:|2 BGE E2E||

